packages/icons/src/components/Icon/assets/small-outline/phone.svg

<svg width="16" height="16" viewBox="0 0 16 16" fill="none" xmlns="http://www.w3.org/2000/svg">
<path fill-rule="evenodd" clip-rule="evenodd" d="M1 3.12019C1 1.94924 1.94924 1 3.12019 1H4.01263C4.64964 1 5.2049 1.43354 5.3594 2.05153L6.07888 4.92943C6.21434 5.4713 6.01187 6.04158 5.56504 6.3767L4.72336 7.00796C4.70907 7.01868 4.70216 7.03087 4.69966 7.03864C4.69871 7.0416 4.69855 7.04339 4.69852 7.04398C4.69853 7.04399 4.69854 7.04401 4.69854 7.04403C5.42033 9.01441 6.98559 10.5797 8.95597 11.3015C8.95599 11.3015 8.956 11.3015 8.95602 11.3015C8.95661 11.3014 8.9584 11.3013 8.96136 11.3003C8.96913 11.2978 8.98132 11.2909 8.99204 11.2766L9.6233 10.435C9.95842 9.98813 10.5287 9.78566 11.0706 9.92112L13.9485 10.6406C14.5665 10.7951 15 11.3504 15 11.9874V12.8798C15 14.0508 14.0508 15 12.8798 15H11.4159C5.66334 15 1 10.3367 1 4.58413V3.12019ZM3.12019 2.3125C2.67412 2.3125 2.3125 2.67412 2.3125 3.12019V4.58413C2.3125 9.61178 6.38822 13.6875 11.4159 13.6875H12.8798C13.3259 13.6875 13.6875 13.3259 13.6875 12.8798V11.9874C13.6875 11.9526 13.6639 11.9223 13.6301 11.9139L10.7522 11.1944C10.7227 11.187 10.6916 11.1981 10.6733 11.2225L10.042 12.0641C9.7006 12.5194 9.08669 12.7471 8.50451 12.5339C6.17162 11.6793 4.32071 9.82838 3.46613 7.49549C3.25287 6.91331 3.4806 6.2994 3.93586 5.95796L4.77754 5.3267C4.80191 5.30842 4.81295 5.27732 4.80557 5.24776L4.08609 2.36986C4.07766 2.33615 4.04737 2.3125 4.01263 2.3125H3.12019Z" fill="black"/>
</svg>

<svg xmlns="http://www.w3.org/2000/svg" width="16" height="16" fill="none" viewBox="0 0 16 16">
    <path d="M1 3.12C1 1.95 1.95 1 3.12 1h.893c.637 0 1.192.434 1.346 1.052l.72 2.877a1.39 1.39 0 0 1-.514 1.448l-.842.631a.1.1 0 0 0-.023.03l-.001.006a7.18 7.18 0 0 0 4.257 4.258l.005-.002a.1.1 0 0 0 .031-.023l.631-.842c.335-.447.906-.65 1.448-.514l2.877.72c.618.154 1.052.71 1.052 1.346v.893A2.12 2.12 0 0 1 12.88 15h-1.464C5.663 15 1 10.337 1 4.584zm2.12-.808a.81.81 0 0 0-.808.808v1.464a9.103 9.103 0 0 0 9.104 9.104h1.464a.81.81 0 0 0 .807-.808v-.893a.08.08 0 0 0-.057-.073l-2.878-.72a.08.08 0 0 0-.079.028l-.631.842a1.35 1.35 0 0 1-1.537.47 8.49 8.49 0 0 1-5.039-5.039 1.35 1.35 0 0 1 .47-1.537l.842-.631a.08.08 0 0 0 .028-.08l-.72-2.877a.08.08 0 0 0-.073-.058z" clip-rule="evenodd"/>
</svg>
